X: 42214
T: Waves Of Tramore
R: jig
M: 6/8
K: Gmajor
d/c/|BGB BGB|AFA ABc|ded cAF|GBd g2 d/c/|
BGB BGB|AFA ABc|d/e/fd cAF|AGF G2:|
B/c/|def gag|fed cBc|def gag|fef g2 B/c/|
[1 def gag|fed cAG|B/c/dB cAF|AGF G2 B/c/:|
[2 dgb afd|e/f/ge dBG|B/c/dB cAF|AGF G2||

